X:1
T:[ID 3-43b]
T:[ID 3-43b]
T:Bezeichnung standardisiert: Menuett Menuet Primo ex B. dur.
T:Urheber unbekannt Datum in der hier transkribierten schriftlichen Quelle: 1799
C:Urheber unbekannt
C:Datum in der hier transkribierten schriftlichen Quelle: 1799
%%score 1 2
L:1/8
M:3/4
K:Bb
V:1 treble nm="Primo"
V:2 treble nm="Secondo"
V:1
 B2 B2 Bd | d2 c2 B2 | d2 d2 df | f2 e2 d2 | f3 bag | f3 bag | f2 e2 d2 |{d} c6 :: fg f2 e2 | %9
 d3 e f2 | fg f2 e2 | d3 e f2 | b2 a2 g2 | f2 e2 df | (3gfe d2 c2 |{A} B6 :| %16
V:2
 !fermata!B2 B2 F2 | B2 A2 B2 | B2 B2 Bd | d2 c2 B2 | d3 ede | d3 ede | d2 c2 B2 |{B} c6 :: %8
 de d2 c2 | B3 c d2 | de d2 c2 | B3 c d2 | g2 f2 e2 | d2 c2 Bd | (3edc B2 A2 |{A} B6 :| %16

